X:1
T:Partita No. 1
T:J. S. Bach (BWV 1002)
T:Arranged in F#m for 8-string guitar by Jeffry Steele tuning: B-D-E-A-D-F#-B-E 
T:Original in B minor 
%%score ( 1 2 3 )
L:1/8
M:4/4
K:A
V:1 treble-8 nm="Classical Guitar"
V:2 treble-8 
V:3 treble-8 
V:1
"^Allemande" c |:"^II" c3 f Td3 c/d/ | c6- c>c | [Fc]3 (d/c/) B>A TG>F | ^E4 A,>F G,>G | A4 z4 | %6
 E3 E Ac/B/ c>E | F2- F>A [Fd]2- [Fd]>F |"^II" [B,Ed]3/2(c/4B/4) !4!e>d c2- c>B | (A<G) (F<E) e4 | %10
 e3 (3(!4!e/!2!d/c/) !4!f>e Td>c |"^II" d4 z3/2 A/ G>F | !1!^E>!2!d"^II" c2- c>C (F/A/)c | %13
 z3/2 F/ B6 | !4![CGB]3/2(c/4d/4 c>)B B2 (TA/G/)A |"^II" G3 (C/^D/) (3(^EF)G (3(AB)c | %16
 (3(=dc)B (3(^ef)g c2- c>B | x6 ^d>d | ^d3 (!4!=e/!–4!f/) f>"^IV"d e>c | %19
 [G^B^d-]3/2B/4-G/4- g>g !4!g4 | z3/2 B/ A>c (3(fg)^e (3(fa)g |"^IV" !2!a4- a>a g>f | %22
"^IV" e3/2(3^d/4(c/4^B/4) !3!c>!4!f d3 c | [Gc]3 (=B/A/) (3(BA)G (3(AF)^B, |1(3x^EG c2- c4 :|2 %25
(3x^EG c2- c3 G |: G3/2(A/4B/4 A>)F ^E4 | (3!4!A,CF- F2 z3/2 G/ C>B, | %28
 A,3/2(F,/4G,/4 A,>)B, (3(CD)=E (3(F=G)E | ^A,3 C F>F G>^A | %30
 [B,FB]3/2(!4!d/4!2!c/4 !-2!d>)!3!F (3(!4!=GF)E (3(dc)B | (3(B^A)!courtesy!^G (3(AG)F"^II" f4 | %32
 z B f(!2!=g/a/) a>g a>f | [B=g]6 z2 | !0!e3/2(!4!d/4!2!c/4) !3!f>e Td>c d/e/c | %35
 (3(dB)F (3DB,F, (3=A,DF (3!4!AB=c | [D=GB]3/2(3(A/4G/4F/4 G>)B (T^E3 F/E/) | %37
 (3(FG)^A (3(Bd)c B2 TA>B | B8 | x4 C>e B,>d | (3z Ed (3(cB)^e (3f(cB) (3(AG)B | %41
"^II" ^E2- (3EEd c2- c>B |"^II" z3/2 (3(B/4A/4G/4 A>)B (3cBc (3d=ef | %43
 !4![C=G]3/2(e/4d/4 (3cB)A (3(!4!G!3!F)!-3!G !4!e>G | %44
"^IV" (3!3!^A,CF (3(^A!4!c)e (3(=gf)e (3(de)c | !4![Fd]>c B>A (3=GBA (3G!3!^E!0!F | %46
"^II" (3!2!^E^G!3!d (3:2:2c E2 z3/2 (f/4=e/4) d>c | (3(^Bc)^d c>F A2 (T!42!G/!0!F/!2!G) | %48
"^II" F3 (A/G/ (3A)FA (3cf^e |1 [FAcf]6 z G :|2 [FAcf]8 |]"^Double" c/ | %52
x/A/c/f/ d/B/G/B/ z/ d/(c/B/) A2- | A/c/(!4!B/A/) G/B/d ^E<G A,/F/G,/G/ | A2 z2 z2 z/ B/c | %55
 z2 !2!d2- d>d c>B | G/E/G/B/ e/=G/E/C/ (!1!^A,/!4!C/)!0!F/!3!c/ (e/=g/)!3!f/e/ | %57
 !3!d/!2!f/(d/B/) (F/A/)(^G/F/) !2!^E/!3!d/c z/ C/F/A/ | z/ c/B z/ B,/=D z/ C/G/B/"^II" A/CA/ | %59
 G/c/G/^E/ z/ E/G z/ c/(A/F/) z/ F/B | z/ B/c"^II" A/F/^d z/ G/f/d/ e/!1!Ge/ | %61
 !4!^d/!2!G/(!1!^B/!3!d/) !4!g/=BB/"^II" z/ C/(B/G/) A/c/(f/g/) | %62
"^IV" !2!a2- a/a/^B/g/ (f/e/)^d/c/ z/ c/d/B/ | !2!c>=B !4!A>F"^II" ^E/x/E/G/ c3/2 :: G/ | %65
"^II" G/d/B/G/ ^E/C/G/B,/ z/ C/F z2 | z2 F2 z/ (C/=E/)=G/ !1!F/!3!E/!4!c | %67
 z/ F/(B/!3!d/) !1!c/e/!4!^A/!0!B/ F/B/"^II"A/c/ f/c/A/E/ | %68
 ^D/F/(B/^d/) (f/=a/)=g/f/ (g/e/)B/=G/ E/(=d/c/)B/ | %69
"^II" ^A/c/!4!e/=g/ f/e/A/e/ d/f/d/B/ !2!F/!1!d/!3!a/!4!=c/ | B>B z2 z/ !2!B,/F/d/ (c/B)^A/ | %71
 z/ D/F/B/ F/D/!1!B,/D/ z/ =E/B C/e/B,/d/ | z/ d/(c/B/) !3!A/c/(^e/f/) B/G/^E/G/ A,/c/G,/B/ | %73
 z/ B/(A/G/) (F/A/)(c/d/) !1!=G/E/C/E/ (A,/C/)E/G/ | %74
 !3!c/!0!F/(!1!^A,/!4!C/) (F/^A/)(c/e/) (d/B/)!3!F/=A/x/(B/d) | %75
 !-2!^E/(!3!d/c) z/ f/(^e/f/) (^B/c/)(E/F/) z/ (A/G/)E/ | %76
 !0!F/"^VII"x/A,/!2!C/ !3!F/A/(c/!4!^e/) f/c/A/F/ z3/2 :|[M:3/4]"^Courante" !0!F | F2 (A,C) FA | %79
 !1!G!3!C- CB, A,G, | z (A, C)F Ac | BE- ED CB, |"^II" z C EA ce | dF- FA GF | z !4!d !2!c3 =E | %85
 z c B4 | z !4!B"^II" (BA) GA | GC- CD CB, | z !3!C !0!F!2!A !1!cf | d3 D FA | G3 z3 | z A eB A=G | %92
 !0!F2 !0!F!2!A !3!d!1!f | !1!g !2!B2 B !3!eg | !4!ae cA Eg | z a gf (^ef) | g3 d cB | Ac f^d =ec | %98
"^IV" !3!^B^d fa g2 | z G ce g=B | !4!^A!2!c !0!e!4!g !2!f2 | z !0!F !2!^B!4!^d !2!f2 | %102
 z !2!^D !4!G!3!^B !–3!^d!1!f | e !2!G2 =d c=B |"^II" !-2!A3 =G FE | z !0!F !3!A!4!d !1!^B!2!c | %106
 !0!F3 ^B, (F!4!A) | !2!G4 z2 |"^II" z ^E (G!4!B) A!4!F | G^E z3 ::"^II" G | Gc G2 z2 | %112
 z3 !4!C GB |"^II" A3 C FA | B3 E cE | z3 F Bd | e A2 A fA | =GB ec dB |"^II" ^Ac !4!e=g f2 | %119
 z f e3 d | c F2 E DC | z !4!d !2!c3 B | A ^D2 =c BA | =GE GB =ce | !4!^A3 c A!3!F | %125
 fd Bd"^IV" F,^A | z !1!C !0!D!0!F !1!^AB | !3!^d !2!F2 F !4!Bd | !0!e!0!B !3!GB G!4!E | %129
"^II" z !2!A !4!F2 BA | !2!GB G4 | z e d3 c | B3 F ED | z !3!A !2!G3 F | z B, D!4!F ED | %135
 !4!C3 D E2 | z A, !3!FA ^GB | e3 A2 G | A4 z2 | z !3!G, !4!C!2!^E !1!GB | !4!A!3!c A!0!F !1!^DF | %141
"^VI" !3!^B,^D G^B !4!^d!2!f |"^IV" !3!^eg e!4!c !3!G!0!B | z !4!=g !2!f3 !3!=A | %144
 z !4!f !2!e3 !3!=G | z !4!e !2!d3 !3!F | z d c3 =E | z F Ac B2- | B3 d cB |"^II" Ac A F2 ^E | %150
 F=E DC B,^A, | B,^A, B,!1!x B,=A | GF E^D C^B, | C^B, Cx C=B |"^II" ^Ac =e=g fe | %155
"^I" dc ^B!3!c !2!GA | =B^E FG z E |"^VII" z A, !3!C!4!F Ac | f4 z :|"^Double" !4!F/ | %160
 FE/D/ !4!C/B,/A,/!4!G,/ F,/A,/G,/F,/ | z/ !4!G,/A,/B,/ !4!C/^D/!4!^E/F/ G/A/B/G/ | %162
 A/F/=E/=D/ C/B,/A,/G,/ F,/A,/G,/F,/ | z/ B,/C/D/ E/F/G/A/ B/c/d/B/ | %164
 c/A/G/F/ E/D/C/B,/ A,/C/B,/A,/ | z/ D/E/F/ !1!=G/A/B/c/ !4!d/B/c/d/ | %166
 !2!^E/!1!^G/!2!A/!4!B/ !1!c2 z/ !2!=G/F/=E/ | z/ !0!F/!2!^G/!3!A/ B2- B/A/G/F/ | %168
"^II" ^E/d/c/B/ A/c/^d/!–3!^e/ !4!f/!3!A/!2!G/!0!F/ | %169
"^IV" z/ !3!G/!4!A/!2!B/ !4!c/^d/^e/f/ g/a/b/g/ | !2!a2 z4 | z/ F/G/A/ B/c/^d/e/ f/g/a/f/ | %172
 g/e/^d/c/ B/A/G/F/ E/=D/C/B,/ | z/ E/F/G/ A/B/c/d/ e/f/=g/e/ | f/d/c/B/ A/!4!=G/F/E/ D/C/B,/A,/ | %175
 z/ B,/C/D/ E/F/G/A/ B/c/d/B/ | c/e/f/g/ a/c/B/A/ z/ B/a/g/ | a/e/c/a/ e/c/A/e/ c/A/G/F/ | %178
 !2!^E/!3!d/!1!c/!0!B/ !4!g/!2!f/!1!^e/!4!^d/"^II" c/!4!B/A/G/ | %179
 A/F/A/c/ f/g/a/g/ f/!0!=e/!1!^d/!4!c/ |"^IV" !3!^B/g/^d/B/ !2!G/d/B/G/ !0!F/!2!A/!1!G/F/ | %181
"^II" E/G/c/^d/ e/f/g/f/ !4!e/!3!d/!1!c/!4!=B/ | !3!^A/f/c/A/ !2!F/c/A/F/ E/G/F/E/ | %183
 ^D/!2!c/!3!=A/F/ D/A/F/D/ !4!C/!2!E/!1!D/C/ | %184
 z/ !1!^D/!2!E/!0!F/ !2!G/!4!^A/!1!^B/!-1!c/ !4!^d/e/f/d/ | e/c/=B/=A/ G/F/E/^D/ C/B,/A,/G,/ | %186
 z/ C/=D/E/ F/G/A/B/ c/d/e/c/ | !4!d/!2!f/d/!3!A/"^III" !2!F/d/A/F/ !3!D/!1!A/!2!F/D/ | %188
 !–3!^B,/F/^D/B,/ G,/^A,/B,/C/"^I" D/E/F/D/ | %189
"^II" E/C/E/G/ !3!c/!2!E/!1!^D/!4!C/"^VI" G,/D/!2!c/^B/ |"^II" c/C/^E/G/ !4!=B/C/E/G/ A/C/!4!F/A/ | %191
 !1!G/!0!F/!3!^E/!1!^D/ !4!C/!3!E/-!2!G/-!1!^B/ !-1![EGc]3/2 :: !2!G/ | %193
 G2- G/G/!3!A/B/ !2!c/!4!^d/!1!^e/!2!c/ | !3!f2 z4 | A,/F,/(A,/"^II"C/) F/(A,/C/)F/ A/F/A/c/ | %196
 B/A/G/F/ E/D/C/B,/ z/ =G/F/E/ | D/x/D/F/ B/D/F/B/ !2!d/!4!B/d/f/ | e/d/c/B/ A/=G/F/E/ z/ =c/B/A/ | %199
 =G/x/G/B/ e/f/=g/f/ e/d/^c/B/ | ^A/x/A/c/ e/d/c/B/ A/^G/F/E/ | %201
!0!x/!0!F/!0!B"^VII"!3!x/E/=A"^V"x/D/=G |"^IV" ^A,/C/E/=G/ F/^G/^A/B/ (!4!c/!4!d/)!0!e/!3!c/ | %203
 !4!d/!1!F/!3!B,/F/ !-4!c/!1!F/!0!=A,/F/ !–4!B/!1!E/!2!=G,/E/ | !–4!A2 z4 | %205
 B/=G/E/F/ G/A/B/c/ d/e/!1!f/!2!=g/ |!3!x/f/c!2!x/c/^A z2 | z/ F/^G/^A/ B2 z/ C/B/A/ | %208
 B2 E/F/G/^A/ B/c/d/e/ | f/g/=a/g/ f/e/^d/c/ B/A/G/F/ | G/A/B/A/ G/F/E/^D/ C/B,/A,/G,/ | %211
 A,/B,/C/B,/ A,/!4!G,/F,/E/ ^D/C/B,/A/ | G/E/G/B/ =d/c/B/A/ G/F/E/D/ | %213
!3!x/!1!E/!2!A!0!x/!0!D/!-2!G!3!x/!–1!C/!0!F | z/ B,/!0!D/!0!F/ E/F/G/A/ B/c/d/B/ | %215
 c/E/A,/E/ B/E/G,/E/ !2!A/D/F,/D/ | !-2!G2 G,/A,/B,/C/ D/F/E/D/ | %217
 !3!C/!4!A,/C/E/ (!4!=G/!1!E/G/)c/ e/A/c/e/ | f/=g/f/e/ d/c/B/A/ !courtesy!^G/F/E/D/ | %219
 z/ E/F/G/ A2 z/ B,/A/G/ |"^II" !2!A/E/C/A/ E/C/!4!A,/E/ C/A,/G,/F,/ | %221
 z/ D/!4!C/!2!B,/ !3!G/!0!F/!3!^E/!1!^D/ C/B,/A,/G,/ | %222
 A,/F,/(A,/C/)"^II" !4!F/G/A/G/ !0!F/!2!=E/!1!^D/!4!C/ | %223
"^I" !3!^B,/!4!G,/B,/^D/ !2!G/D/G/^B/ ^d/A/G/F/ |"^II" !2!^E/c/G/E/ C/G/E/C/ =B,/!4!=D/C/B,/ | %225
 z/ !2!c/!4!^d/!0!e/ !3!f2 z2 | z/ B/c/=d/ e2 z2 |"^II" z/ !2!A/!4!B/!1!c/ !2!d2 z2 | %228
 z/ G/A/B/ !2!c2 z2 | !1!^D,/!2!F,/!4!G,/!courtesy!=A,/ !2!B,/!4!C/!1!^D/!3!^E/ !0!F/G/A/F/ | %230
"^II" G/c/!4!B/!2!A/ !-2!G/F/^E/^D/ C/B,/A,/G,/ | A,/F,/(A,/"^II"C/) F/A/c/F/ C/F/G/^E/ | %232
 !0!F/!0!D/F/!3!A/ !2!c/B/!3!A/!2!G/ !0!F/!2!=E/!1!^D/!4!C/ | z3/2 !3!A/ (!2!f/e/f-) f>A | %234
 !2!G/!1!E/G/B/ d/c/B/A/ G/F/^E/^D/ | z3/2 B/ (!4!g/f/g-) g>B | %236
 !4!^A/x/A/c/ e/d/c/B/ A/!4!=g/!2!f/!0!e/ | %237
 (!4!d/!2!c/)(!1!^B/!2!c/) (!1!G/!2!=A/)(!1!^E/!2!F/) (!1!^B,/!2!C/)(!1!E/!-1!F/) | %238
"^IV"!2!x/!3!^e/!1!g/B/ !2!A<!-3!f"^VI" z/ G/f/e/ |"^VII" (f/a/f/)c/ f/c/A/c/ A/!4!F/c/A/ | %240
 F/A/F/!3!C/ F/C/A,/C/ !1!F,3/2 :|[M:3/4]"^Sarabande" [FAc]2 [Ad]2 cB | [Ac]3 B AG | FB AG AF | %244
 ^E3 D CB, |"^IV" [CF]2"^II" [B,E]2 (D/C/D) | [DG]3 A !4![CB]2 | BA BA GF |1 [^EGc]6 :|2 [^EGc]6 |: %250
"^VI" [G^e]2 [Ge]2 [Ge]2 | !0!F!1!c !4!f!2!e !1!^d!2!c | !0![FB]2"^II" [Gc]2"^IV" !2![B^d]2 | %253
 !–2!!0![Ge]3 d cB |"^II" !3!^A!2!=g f!0!B !3!Ae | (!1!=G/F/)G/E/ Fe !4![Fd]2 | %256
 [=Gd]c [Fc]B [EB]^A | [DB]3 A, G,F, | [GB]2 AG FE | A3 B [Ec]2 | [Ff]2 [Gd]2 [Ac]2 | %261
 [GB]3 [Ac] d2 | !0!F!2!^E/!3!d/ cB AG | A3 B [Gc]2 | [Fc]2 BA GF | ^E3 !4!D CB, | %266
 !0![CF]2 [^EG]2 !4!!2![FA]2 |"^IV" !–4!A!3!^D (!1!F!4!A) ^dA | (!2!G/F/)G (A/G/)A !0![FB]2 | %269
 !4!!0![^EB]!0!F !3!G!0!B !1!^eB | [Af]2 [Ge]2 [Fd]2 | [B,^E]!4!d !-4!c!2!B !–2![CA]2 | %272
x!1!G T!2![^EG]3 !-2!F | !2![CF]6 :|[K:A][M:9/8]"^Double" FAc dBA Ged | c6 z AG | %276
 F3 z !4!B!2!A z !-2!GF |"^II" z cG ^E6 |!4!xC!0!F!-4!xF!2!E!1!xED | %279
"^V"x!2!G,!4!B, D!3!G!1!B z !4!c!0!B | AFE DBA G^EF |1"^II" z ^EG cdc BAG :|2 cG^E C6 |: %283
"^VI"!4!xG^e e G2 z3 |"^VII"x!3!C!4!F Acf !4!e!3!^d!1!c | B^DA !1!GE!3!c !-1!A!3!F!4!^d | %286
"^V" !1!e!1!B!2!G !3!EGB !4!d!3!cB | !3!^A2 !4!=g !4!f !2!B2- B!-2!A!0!e | %288
 !–2!=G !4!E2 z Fe !2!d!3!^AB | z !3!d!2!c FDB CB^A | BFD B,DF Bcd | eBA GFE DCB, |xEG AcB c3 | %293
 z3 z fe dBc | B!3!G!0!F GE^D E!1!B,!0!=D | !4!^E!2!G!0!B !4!d!3!cB !4!ABG | !-2!AFG AcB c3 | %297
 z Fc BGA G^EF |"^II" ^EG!3!F !2!E3 z3 |!4!xCF F!3!^E!2!G GFA | AF^D B,DF A^df | %301
x!courtesy!=DG GF!2!A AGB | B!2!G!3!^E !4!CEG B!4!^e!2!g |x!-4!f!3!c!1!x!–4!e!–3!Bx!–4!d!–3!A | %304
 !4!G,!1!B,!0!D !3!^E!1!GB dcB | (!1!^e!2!f)(^B c)(G!-1!A)x!4!F!2!^E |1 !0!F6 !0!F!1!G!2!A :|2 %307
"^VII" z !1!A,!3!C !4!FAc f3 |][K:A][M:2/2]"^Tempo di Bourrée" c2 | [cf]2 c2 [cf]2 c2 | %310
 !-2!!4![Gd]2 d!2!c B2 [^Ed]2 | [Fc]2 [GB]2 TA2"^II" G2 | (!4!BA)GA F2 AG | A6 A2 | G2 GF G2 eB | %315
 !2!G6 G2 | !4!!0![CF]2 FE F2 fd | !4!B2 d!4!B G2 !4!BG | E2 FG ABcd | e2 A2 B2 !2!G2 | %320
 (!-2!AG) A2 f2 !3!A2 | (!-3!GF) G2 !0!e2 !2!=G2 | F2 A2 (GA) B2 | D2 D!4!C D2 BC | D2 BC D2 BC | %325
 !1!D2- !3![DG]2- !2![DGe-]4 | e(!2!ag)!4!f !0!e!2!d(fe) | (dc)BA E2 !2![DG]2 | !-2![CA]4 x2 :: %329
 [Ac]2 | [GB]2 [Ac]2 [Bd]2 [Ac]2 | [GB]2 BA B2 [Ae]2 | [B,G]2 [CA]2 [DB]2 [CA]2 | %333
 [B,G]2 [B,G][A,F] [B,G]2 [C^A]2 | [FB]2 [Fd]4 [Ec]2 | %335
"^III" !4![DB]!-4![C^A] !-4![DB]2 [DB]2 [Bd][Ac] | [Bd]2 [Bf]2 Td2 cB | B6 [Fd]2 | %338
 [EG]2 d2 [EG]2 d2 | d2 cB c2 !4!f2 |"^III" !3!G2 !4!f2"^IV" !3!G2 !2!e2 | ^dc^B^A G2 !4!g!1!f | %342
 g6 g2 | B2 AG A2 !3!f!1!^e | !3!f6 !1!f2 | !-2!G!4!^A!1!^Bc ^def!4!d |"^IV" !–4!fe^dc z2 [F^B]2 | %347
"^II" c2 z2 z4 | z2 e2 ^A2 e2 | e2 dc d2 z2 | z2 d2 G2 d2 | d2 cB cAGF | ^E2 B2 D2 B2 | %353
 !4!C!2!GBA BdcB | (AG)FE (D^E)(FG) | (!3!AF)!2!G!3!^E"^IV"x!–3!Gc^d | (^ef)ef (ga)ga | %357
 !–2!b!1!c!3!xc bc(^E!4!F) | (!1!G!2!A)!4!B!2!c !4!^d(!1!^e!2!f)!4!g | !-4!a!3!=cxc ac!0!F!1!G | %360
 (!2!A!4!B)AG FE^DC | z (!4!a!3!g)!1!f !1!^e(dc)B | (AG)AF z2 ^E2 | !4![CF]2 AG !4!F4- | %364
 F2 AG !0!F^E F2 | !0!!1![Fc]2 F!2!^E F2 !4!=G!3!F | (ED)CB, ^A,(=GF)E | DCB,C DEF!1!G | %368
 !2!A!3!c!4!f!1!^d !4!^B!3!G"^IV"!2!ag | (f^e)fg c2 g!4!A | !2!B2 g!4!A B2 g!4!A | %371
 !–4!B2- !3!d!1!c d4- | dcBA (GF)^EG | (B,D)CB, (A,G,)F,^E, | [cf]2 c2 [cf]2 c2 | %375
"^III" !4!!3![GBd]2 d!4!c !3!B2"^III" !3![GBd]2 | !–3!!2![Ac]2 !-3![DGB]2 !3!!1![FA]2 B!2!G | %377
 !2!!-3![CF]6 :|[M:2/2]"^II""^Double" !3!F!2!Ac | fcAF Acfc | (dc)BA (GF)^Ed | cAGB AFC,G | %382
 (BA)(GA) !4!FCFG | !1!A!3!F!2!C!4!A, !1!F,!0!A,!0!D!0!F | GDE,D GBeB | %385
"^II" GEB,!3!G, !1!E,!3!G,!4!CE | !4!F!3!CD,C F!2!A!1!c!0!e | !1!f!2!d!4!Bd !4!B!1!G!0!BG | %388
 DEFG ABcd | eCEA DB!2!E!3!G | !4!A!2!E!1!F,E A!3!fA!1!^D | !2!G!courtesy!=DE,D Ge!1!=G!4!C | %392
!-4!x!3!F!2!A!3!C!1!x(GA)B | z4 z (Bc)d | z4 z (de)f | (ga)ba gfed | (cB)dc BA(GF) | %397
 (ED)CA B,AE,G | !2!A!4!A,CE A :: x2 c | B2 c2 d2 c2 | [GB](AGA) B3 A | G2 A2 B2 A2 | %403
 (GF)EF G3 ^A | BF d3 dc^A | (!4!B!2!^A)B!3!=G !0!F(ED)C | DFB!1!f (!4!e!2!d)!-2!cB | %407
 BFDF B,Fd!2!A | !-2!GB- B2 z e d2- | ddcB !3!AcfA |"^II"!2!xG^df"^IV" !2!eGCe | %411
 ^dc^B^A Gd!0!e!1!f | !4!gBFBxBgB |xBAG Ac^de |"^II" !1!f!2!A!1!E!2!A !1!^DA!3!CA | %415
!-3!x!1!^D!-2!G!4!^A ^Bc!4!^d!0!e |"^IV" (!–4!fe)^d!4!c !3!G(e/d/)c!3!^B | %417
 !4!c!0!F!3!E!1!^D !4!C z z2 |"^IV" z !–3!^A,(!1!C!4!E) !2!=G(!1!^A!4!c)!2!e | %419
"^II" z !4!e!–2!dc d4 |"^II" z !3!G,(!1!B,!4!D) !2!^E(!1!G!4!B)!2!d |xdcB (AG)BF | %422
 (!4!F!2!^E)B!1!=E (!3!E^D)B=D | DCB,^A, B,!0!D!3!C!1!B, | !4!A,!2!F,A,!3!C !-3!D(!1!^E!2!F)!4!G | %425
 z (!3!AG)!0!F !3!^E!2!G!4!C!1!^D | (!3!^E!-3!F)GA !4!Bc(dc) |"^III" d!4!B^EB dBdB | %428
 d!4!B!1!^E!3!F !–3!G!4!A!2!B!4!c |"^IV" ^d!3!^BFB dBdB | ^d^B!1!F!3!G !4!A!3!B!4!c!1!d | %431
 !4!^e!2!B!3!G!4!A !2!B!4!c!1!^d!3!e | !4!f!1!g!-1!af"^VII" !1!cfg!1!^e | %433
 !-1!f!2!c!0!B!1!G !2!AF(!3!^EF) | z (!2!AG)F (!3!^E!-3!F)!4!BF | %435
 !1!c(!2!A!1!G)!0!F (!–1!^E!2!F)(!1!C!2!D) | !4!E(!2!=GF)E!3!x(ED)C | z (!0!FG)A (Bc)^dB | %438
 (!0!F!3!A)GF!3!x!0!F(!4!^E^D) | z (!1!G!2!A)B (c^d)!1!^e!-1!f | gBxB gBgB | gB(^EF) GABc | %442
 (!2!de)dc BAGF | (!1!^ef)e!4!^d cB!3!A!2!G | !-2!AFAc fcAF | (dc)BA (GF)^Ed | cAGB AFC,^E | %447
 !fermata!F,4 z :| %448
V:2
 x |: F,8 | !2!^E,4- E,>F, =E,2 | [D,A,]8 | z3/2 D/ C>B, x2 x2 | %5
 z3/2 (F,/4G,/4 A,>)B, CA,/B,/ C=E/D/ | C6 z3/2 A,/ | DF/E/ D>C B,>B, C>D | G,4 z3/2 A,/ D2- | %9
 D2 z2 z3/2 !4!D/ C3/2(D/4B,/4) | [^A,F]3 z z4 | z3/2 B/ F>D B,2- B,>A, | !3!G,2- G,>B, !4!=A,4 | %13
 ^D2- D>A, (3(G,A,)B, (3(CD)F, | !-1!^E,4 [F,C]4 | C,8 | z4 z3/2 F/ ^E2 | %17
 (3F,B,D (3^EGB (3(AG)F- F2 | [^B,G]3 z z2 [CG]2 | G,4 z2 x2 | F,4 z4 | z3/2 !4!^B/ !3!^D>B G,4 | %22
 [CG]2 !2!E>!0!F G4 | C,6 x x |1 C4- C>B, A,>G, :|2 C6 C,2 |: C4- C>C (TB,3/2A,/4B,/4) | %27
 A,2 (3(A,G,)F, ^E,4 | x8 | E,8 | D,8 | x4 z3/2 (F,/4G,/4 A,/)(B,/=C) | ^D,3 z B,,4 | %33
 E,3 F, (3(=G,F,)E, (3(CD)E | ^A,4 F,4 | B,,4 D,4 | !3!=G,4 C,4 | [D,B,]4 [F,C]4 | %38
 B,,3 C, (3(D,E,)!1!F, (3(G,A,)B, | G,>B, E>D x2 x2 | A,8 | (3z DC B,2- B,>!4!A, G,2 | F,6 z2 | %43
 E,8 | F,4 z4 | !2!B,8 | !4!C2- (3:2:2C2 B, A,4- | A,2- A,>=B, C2 C,2 | [F,C]8 |1 [F,C]6 z2 :|2 %50
 [F,C]8 |] x/ | F3 G ^E2 z/ F/C/=E/ | D2- D>F ^EC/B,/ A,G, | A/C/F,/G,/ A,/B,/C/D/ E/A,/C/E/ A>E | %55
 F/D/F/!1!A/ z/ F/D/B,/ G,/B,/E z/ A,/D, | E,4 !2!F,4 | B,4 !4!C>B, !4!=A,2 | %58
 ^D>A, G,>F, ^E,2 z F, | C,2 C>B, A,2 ^D>^E | F>G A/FF/ !2!^B,2 z !3!C | z3 !2!^E, F,4 | %62
 z/ !4!^B/!3!^D/B/ G,4 G2 | z/ !1!G/!3!^E z/ !3!^B,/!1!^D z/ C3/2 C,3/2 :: x/ | %65
 C,4 !4!A,>A, G,/F,/^E,/B,/ | A,/F,/A,/C/ F/D/!1!C/!4!B,/ !3!^A,2 z3/2 E,/ | D,2 =G,2 F,4 | %68
 B,,4 E,4 | F,4 B,2 F2 | z/ !0!F/!3!=G !–3!^E/!4!F/!1!^A,/!2!B,/ D,3 F, | B,,4 G,>D CB, | %72
 A,6 A,G, | F,4 E,4 | !2!F,2 z2 B,2 !3!=G>!2!F | !4!C>B, A,4 C,2 | z/ F,3/2- F,4 F,3/2 :| %77
[M:3/4] x | FF,- F,4 | x2 !2!^E,4 | F,6 | x2 G,4 | !4!A,6 | z2 B,4 | !3!^E3 !1!B, !-1!^A,2 | %85
 ^D3 =A, !3!G,!1!B, | !2!^E,2 [F,C]4 | z2 ^E,4 | !4!A,6 | z F B,4 | z B, (E,G,) B,D | C6 | %92
 F!0!D- D4 | z2 D4 | !3!C4 E2 | A,6 | z B ^E4 | F4 F,2 | G,4- G,F, | E,6 | F,4- F,E, | %101
 !1!^D,4- D,!1!C, | !-1!^B,,4 z2 | z2 !1!C,4 | z C F,4 | D6 | z !3!^B, !1!^D,4 | %107
 z !1!E !-1!^D!4!C !3!G,!2!^B, | !3!C6- | C2 C,3 :: z | z3 ^E CA, | !1!^D,B, !1!^E,4 | z C F,4 | %114
 z E ^A,4 | DB, D4 | z2 ^D,4 | E,6 | F,4- F,E | D3 C B,2 | z2 ^A,3 C | !1!B,3 =A, =G,2 | z2 F,4 | %123
 E,6- | E,^C E,4 | D,4 F,2 | !4!B,6 | z2 =A,4 | !1!G,6 | !1!C,3 !3!^D,3 | E,3 E B,=D | C3 B, A,2 | %132
 z !1!E G,4 | !4!C3 B, A,2 | !3!G,6 | z !2!=G, !1!F,3 E, | D,6 | z D C2 E,2 | %138
 z A, G,F, !2!^E,!3!F, | !1!^E,4 z2 | !2!F,6 | G,6 | C6 | !–3!^A3 !1!E !-1!^D2 | %144
 !-3!G3 !0!=D !1!C2 | !-3!F3 !3!C !1!B,2 | !-3!^E3 !1!B, !-1!^A,2 | ^D4- DA, | G,F, ^E,4 | %149
 F,4 C,2 | D,6- | D,3 ^D,3 | E,6- | E,3 ^E,3 | F,6 | ^E,4 =E,2 | D,4 C,2 | F,6 | z5 :| x/ | x6 | %161
 !3!^E,4 C,2 | F,2 z4 | G,4 E,2 | A,2 z4 | !2!B,6 | !3!C2- C/D/C/B,/ !-1!^A,2 | %167
 ^D2- D/!4!C/!2!B,/A,/ !3!G,2 | C,2 F, z z2 | C6 | %170
 z/ !1!F/!4!E/!0!D/ !4!C/B,/A,/!4!G,/ F,/E,/!1!^D,/!2!C,/ | B,,6 | E,6 | A,6 | D,6 | ^G,6 | %176
 A,4 E,2 | A,6 | !4!C2 z2 C,2 | F,4 z2 | G,4 z2 | C,4 z2 | F,4 z2 | B,,4 z2 | !3!^B,4 G,2 | C2 z4 | %186
 F,4 E,2 | D,6 | z4 ^B,,2 | C,2 z2 G,2 | C,6 | z2 C2- C z/ :: z/ | z/ !4!C/^D/^E/ !4!F2 z2 | %194
 z/ !2!c/!0!B/!4!A/ !2!G/!0!F/^E/^D/ C/B,/A,/G,/ | x6 | x4 ^A,2 | x/ B,3/2- B,4 | z4 ^D2 | %199
 x/ E3/2- E4 | x/ F3/2- F2 z2 | D>D C>C B,>B, | ^A,2 x4 | x B,2 A,2 =G, | %204
 z/ !1!^D/!2!F,/=G,/ A,/B,/C/!1!D/ E/F/=G/A/ | z E- E4 | ^A>A F>F (E/=G/)F/E/ | %207
 D2- D/D/!3!C/"^II"!1!B,/ !1!F,2 | z/ B,/C/D/ x4 | z4 B,,2 | E,4 z2 | x3 F,2 B, | E,6 | %213
 C>C B,>B, A,>A, | !-3!G,4 E,2 | z A,2 !3!G,2 F, | G/D/E,/F,/ x4 | x6 | D,4 z2 | %219
 C2- C/C/B,/A,/ E,2 | z6 | !-1!^E,2 z4 | x6 | x6 | x6 | ^A,2- A,/!2!G/F/!2!E/ !1!^D/C/B,/=A,/ | %226
 G,2 z/ F/E/D/ C/B,/A,/=G,/ | F,2 z/ E/D/C/ B,/A,/^G,/F,/ | %228
 !-1!^E,2- E,/D/!4!C/!1!B,/ !-1!^A,/G,/F,/=E,/ | ^D,2 z4 | C,2 z4 | x4 C2 | !1!F,4 z2 | %233
 (!1!B,/!4!C/B,-) B,>A (B,/C/B,) | z6 | !3!C/!0!D/C- C>B C/D/C | x/ !3!F3/2- F2 !–3!^A2 | x6 | %238
 B>B A!1!G/!0!F/ !4!C2 | z6 | x11/2 :|[M:3/4] [F,C]2 B,2 [E,G]2 | A,6 | D2 B,2 ^B,2 | C2 C,4 | %245
 A,2 G,2 F,2 | E,4 ^E,2 | [F,C]2 D,4 |1 C,3 B, A,G, :|2 C,6 |: !4!C2 B,2 C2 | A,6 | %252
 !1![A,^D]2 [G,E]2 !4![F,A]2 | [E,B,]6 | E3 D !2!C2 | !–2!B,2 ^A,2 !2!B,2 | [E,E]2 [F,D]2 [F,C]2 | %257
 B,2 B,,4 | [E,E]4 !4!D2 | C2 B,2 A,2 | [D,A,]2 B,2 A,2 | E2 E,2 (BG) | !4!!1![G,B,]6 | %263
 [F,C]4 [E,C]2 | [D,D]4 B,2 | C2 C,4 | A,2 G,2 F,2 | B,,6 | !1!B,2 A,2 !3!!1![G,B,]2 | !2!C,6 | %270
 C2 B,2 A,2 | G, z x2 F,2 | B,,2 C,2- [C,B,]2 | !1!!3![F,A,]6 :|[K:A][M:9/8] F,3 B,,3 E,3 | %275
 z AG AEC A,3 | z D,C, B,,3 ^B,,3 | [C,^E]3 z !4!DC B,!4!A,G, | A,3 G,3 F,3 | E,6 !2!^E,3 | %280
 F,3 B,,3 D,3 |1 C,6- C,3 :|2 C,6- C,3 |: C3- C2 C !2!B,!0!A,!1!G, | A,6- A,3 | !2!B,3 E,3 B,,3 | %286
 !0!E,6- E,3 | z !1!E2 z2 !0!D !1!C3 | z2 !3!B, !1!^A,3 !-1!B,3 | E,3 F,6 | B,,6- B,,3 | E,6 z3 | %292
 C6 z EA, | D,A,F, G,3 A,3 | E,6- E,3 | !1!C,6- C,3 | F,6- F,E,C, | D,6 B,,3 | %298
 C,3- C,!4!DC B,A,G, | A,3 !-4!G,3 F,3 | B,,6- B,,3 | B,3 A,3 G,3 | !1!C,6 z2 z | A,3 G,3 !1!F,3 | %304
 !2!^E,6 z3 | z6 !3!C3 |1 z !2!C!–3!A, !1!F,A,C z3 :|2 !1!F,6- F,3 |][K:A][M:2/2] x2 | %309
 [F,CFA]4 [F,CFA]4 | !1!!3![B,^E]6 !1!B,2 | A,2 B,2 C4 | [F,C]8 | z2 [F,C]2 [F,D]4 | [E,D]8 | %315
 z2 [E,B,]2 [E,C]4 | D,8- | D,8 | !4!D8 | C2 C,2 D,2 E,2 | [F,E]4 z2 !2!^D2 | %321
 !-2![E,!courtesy!=D]6 !1!C2 | D2 C2 B,2 A,2 | !3!G,8 | G,4 F,4 | E,8 | z8 | z6 E,2 | A,4 z2 :: %329
 A,2 | E,4 E,4 | E,6 [E,C]2 | E,4 E,4 | E,8 | [D,D]4"^II" F,4 | =G,6 z2 | z2 D2 E2 F2 | %337
 B,2 C2 D2 B,,2 | E,4 E,4 | [A,E]6 z2 | ^B,4 C4 | G,6 z2 | z2 [FB]2 [^EB]4 | F6 z2 | %344
 z2 !2!!4![EA]2 !1![^DA]2 !3!!2![CA]2 | !-3!^B,8 | [CG]4 G,4 | [C,EG]2 CD CB,^A,G, | F,4 [F,C]4 | %349
 [B,-F]4 B,B,CD | E,4 [E,B,]4 | [A,E]8 | G,4 F,4 | !1!^E,2 z2 z4 | x8 | z4 C4- | C8 | z2 ^E4 z2 | %358
 z8 | z2 !2!F4 z2 | x8 | !2!^B,2 z2 z4 | z4 C,4 | F,6 F,E, | D,8 | A,8 | x8 | x8 | x8 | x8 | %370
 C4 !3!^D4 | !2!^E2- [EB]6 | z8 | x8 | [F,CFA]4 [F,CFA]4 | !1!^E,6 E,2 | %376
 !1!F,2 !2!B,2 !–2!C2 !1!!-3![C,^E]2 | !1!!4![F,A,]6 :|[M:2/2] x3 | F,6 F,2 | B,,6 B,2 | %381
 A,2 B,2 C2 C,2 | F,8 | x8 | x8 | x8 | x8 | x8 | x8 | x8 | x8 | x8 | D3 C B,4 | (DC)B,A, G,4 | %394
 (B,A,)G,F, E,4- | E,8 | A,4 D,4 | E,2 F,2 D,2 E,2 | x5 :: (c!4!e)!2!A | !-2!GE,AE, BE,AE, | %401
 E,4 z D C2 | B,E,CE, DE,CE, | [E,B,]4- [E,B,]E, C,2 | D,3 E, F,4 | =G,4 z4 | F,2 D,2 E,2 F,2 | %407
 B,,8 | E,2 ED C3 B, | A,8 | ^B,4 z2 C2 | G,6 z2 | z2 F2 ^E4 | F4- F z z2 | z2 E2 ^D2 C2 | %415
 ^B,4 z4 | C4 G,4 | !2!C,4 z !2!B,!1!^A,!3!G, | F,8 | B,4- B,!4!A,G,F, | E,8 | A,4 z4 | %422
 !3!G,4 !2!F,4 | ^E,4 z4 | x8 | !1!C,6 z2 | z8 | !2!G,4 !2!F,2 !1!^E,2 | !2!G,4 z4 | %429
 !2!A,4 !1!G,2 !1!F,2 | !2!A,4 z4 | C4 z4 | D2 !3!B,2 !–3!C4 | !4!F4 z4 | D,8 | A,4 z4 | z4 ^A,4 | %437
 !–1!B,8 | z4 ^B,4 | !-3!C8 | z2 ^E6 | z8 | x8 | x8 | F,8 | B,,6 B,2 | A,2 B,2 C2 C,2 | x5 :| %448
V:3
 x |: [CFA]4 B,4 | !3!!4![CB]3 (!3!A/G/) A4 | x3 x x4 | x8 | x8 | x8 | x8 | x8 | x8 | x8 | x8 | %12
 x8 | x8 | x8 | x8 | x8 | x8 | x8 | x2 [GBd]2 z3/2 =B/ ^E,>B | x8 | x8 | x8 | x8 |1 x8 :|2 x8 |: %26
 x8 | x8 | x8 | x8 | x8 | x8 | x8 | x8 | x8 | x8 | x8 | x8 | x8 | x8 | x8 | x8 | x8 | x8 | x8 | %45
 x8 | x8 | x8 | x8 |1 x8 :|2 x8 |] x/ | x8 | x8 | x8 | x8 | x8 | x8 | x8 | x8 | x8 | x8 | x8 | %63
 x15/2 :: x/ | x8 | x8 | x8 | x8 | x8 | x8 | x8 | x8 | x8 | x8 | x8 | x15/2 :|[M:3/4] x | x6 | x6 | %80
 x6 | x6 | x6 | x6 | x6 | x6 | x6 | x6 | x6 | x6 | x6 | x6 | x6 | x6 | x6 | x6 | x6 | x6 | x6 | %99
 x6 | x6 | x6 | x6 | x6 | x6 | x6 | x6 | x6 | x6 | x5 :: x | x6 | x6 | x6 | x6 | x6 | x6 | x6 | %118
 x6 | x6 | x6 | x6 | x6 | x6 | x6 | x6 | x6 | x6 | x6 | x6 | x6 | x6 | x6 | x6 | x6 | x6 | x6 | %137
 x6 | x6 | x6 | x6 | x6 | x6 | x6 | x6 | x6 | x6 | x6 | x6 | x6 | x6 | x6 | x6 | x6 | x6 | x6 | %156
 x6 | x6 | x5 :| x/ | x6 | x6 | x6 | x6 | x6 | x6 | x6 | x6 | x6 | x6 | x6 | x6 | x6 | x6 | x6 | %175
 x6 | x6 | x6 | x6 | x6 | x6 | x6 | x6 | x6 | x6 | x6 | x6 | x6 | x6 | x6 | x6 | x11/2 :: x/ | x6 | %194
 x6 | x6 | x6 | x6 | x6 | x6 | x6 | x6 | x6 | x6 | x6 | x6 | x6 | x6 | x6 | x6 | x6 | x6 | x6 | %213
 x6 | x6 | x6 | x6 | x6 | x6 | x6 | x6 | x6 | x6 | x6 | x6 | x6 | x6 | x6 | x6 | x6 | x6 | x6 | %232
 x6 | x6 | x6 | x6 | x6 | x6 | x6 | x6 | x11/2 :|[M:3/4] x6 | x6 | x6 | x6 | x6 | x6 | x6 |1 x6 :|2 %249
 x6 |: x6 | x6 | x6 | x6 | x6 | x6 | x6 | x6 | x6 | x6 | x6 | x6 | x6 | x6 | x6 | x6 | x6 | x6 | %268
 x6 | x6 | x6 | x6 | x6 | x6 :|[K:A][M:9/8] x9 | x9 | x9 | x9 | x9 | x9 | x9 |1 x9 :|2 x9 |: x9 | %284
 x9 | x9 | x9 | x9 | x9 | x9 | x9 | x9 | x9 | x9 | x9 | x9 | x9 | x9 | x9 | x9 | x9 | x9 | x9 | %303
 x9 | x9 | x9 |1 x9 :|2 x9 |][K:A][M:2/2] x2 | x8 | x8 | x8 | x8 | x8 | x8 | x8 | x8 | x8 | x8 | %319
 x8 | x8 | x8 | x8 | x8 | x8 | x8 | x8 | x8 | x6 :: x2 | x8 | x8 | x8 | x8 | x8 | x8 | x8 | x8 | %338
 x8 | x8 | x8 | x8 | x8 | x8 | x8 | x8 | x8 | x8 | x8 | x8 | x8 | x8 | x8 | x8 | x8 | x8 | x8 | %357
 x8 | x8 | x8 | x8 | x8 | x8 | x8 | x8 | x8 | x8 | x8 | x8 | x8 | x8 | x8 | x8 | x8 | x8 | x8 | %376
 x8 | x6 :|[M:2/2] x3 | x8 | x8 | x8 | x8 | x8 | x8 | x8 | x8 | x8 | x8 | x8 | x8 | x8 | x8 | x8 | %394
 x8 | x8 | x8 | x8 | x5 :: x3 | x8 | x8 | x8 | x8 | x8 | x8 | x8 | x8 | x8 | x8 | x8 | x8 | x8 | %413
 x8 | x8 | x8 | x8 | x8 | x8 | x8 | x8 | x8 | x8 | x8 | x8 | x8 | x8 | x8 | x8 | x8 | x8 | x8 | %432
 x8 | x8 | x8 | x8 | x8 | x8 | x8 | x8 | x8 | x8 | x8 | x8 | x8 | x8 | x8 | x5 :| %448

